SVG_Azure_Grouped/Data/SQL Database Data Discovery & Classification.svg

<?xml version="1.0" encoding="UTF-8" standalone="no"?>
<!-- Generated by Microsoft Visio, SVG Export SQL Database Data Discovery &#38; Classification.svg Page-1 -->

<svg
   xmlns:dc="http://purl.org/dc/elements/1.1/"
   xmlns:cc="http://creativecommons.org/ns#"
   xmlns:rdf="http://www.w3.org/1999/02/22-rdf-syntax-ns#"
   xmlns:svg="http://www.w3.org/2000/svg"
   xmlns="http://www.w3.org/2000/svg"
   xmlns:sodipodi="http://sodipodi.sourceforge.net/DTD/sodipodi-0.dtd"
   xmlns:inkscape="http://www.inkscape.org/namespaces/inkscape"
   width="0.78733212in"
   height="0.78747654in"
   viewBox="0 0 56.68798 56.698598"
   xml:space="preserve"
   class="st8"
   version="1.1"
   id="svg64"
   sodipodi:docname="SQL Database Data Discovery &amp; Classification.svg"
   style="font-size:12px;overflow:visible;color-interpolation-filters:sRGB;fill:none;fill-rule:evenodd;stroke-linecap:square;stroke-miterlimit:3"
   inkscape:version="0.92.5 (2060ec1f9f, 2020-04-08)"><metadata
   id="metadata70"><rdf:RDF><cc:Work
       rdf:about=""><dc:format>image/svg+xml</dc:format><dc:type
         rdf:resource="http://purl.org/dc/dcmitype/StillImage" /></cc:Work></rdf:RDF></metadata><defs
   id="defs68" /><sodipodi:namedview
   pagecolor="#ffffff"
   bordercolor="#666666"
   borderopacity="1"
   objecttolerance="10"
   gridtolerance="10"
   guidetolerance="10"
   inkscape:pageopacity="0"
   inkscape:pageshadow="2"
   inkscape:window-width="640"
   inkscape:window-height="480"
   id="namedview66"
   showgrid="false"
   inkscape:zoom="1.7193066"
   inkscape:cx="37.795072"
   inkscape:cy="23.279613"
   inkscape:window-x="0"
   inkscape:window-y="0"
   inkscape:window-maximized="0"
   inkscape:current-layer="svg64" />
	<style
   type="text/css"
   id="style2">
	<![CDATA[
		.st1 {fill:#a0a1a2;stroke:none;stroke-linecap:butt;stroke-width:12.24}
		.st2 {fill:#7a7a7a;stroke:none;stroke-linecap:butt;stroke-width:12.24}
		.st3 {fill:#fcd116;stroke:none;stroke-linecap:butt;stroke-width:12.24}
		.st4 {fill:#ffffff;stroke:none;stroke-linecap:butt;stroke-width:12.24}
		.st5 {fill:#ffffff;fill-opacity:0.15;stroke:none;stroke-linecap:butt;stroke-width:12.24}
		.st6 {fill:#804998;stroke:none;stroke-linecap:butt;stroke-width:12.24}
		.st7 {fill:#1e1e1e;stroke:none;stroke-linecap:butt;stroke-width:12.24}
		.st8 {fill:none;fill-rule:evenodd;font-size:12px;overflow:visible;stroke-linecap:square;stroke-miterlimit:3}
	]]>
	</style>

	<g
   id="g62"
   transform="translate(-12.24016,-12.2357)">
		<title
   id="title4">Page-1</title>
		<g
   id="group19151-1"
   transform="translate(12.24,-34.0157)">
			<title
   id="title6">SQL Database Data Discovery &amp; Classification.19151</title>
			<g
   id="group19152-2">
				<title
   id="title8">Sheet.19152</title>
				<g
   id="shape19153-3"
   transform="translate(0,-11.3386)">
					<title
   id="title10">Sheet.19153</title>
					<path
   d="m 0,101.02 c 0,0.91 0.68,1.93 1.94,1.93 h 49.63 c 0.91,0 1.94,-0.68 1.94,-1.93 V 65.42 H 0 Z"
   class="st1"
   id="path12"
   inkscape:connector-curvature="0"
   style="fill:#a0a1a2;stroke:none;stroke-width:12.23999977;stroke-linecap:butt" />
				</g>
				<g
   id="shape19154-5"
   transform="translate(0,-48.8693)">
					<title
   id="title15">Sheet.19154</title>
					<path
   d="M 51.57,95.13 H 1.94 C 0.68,95.13 0,96.03 0,97.05 v 5.9 h 53.51 v -5.9 c 0,-1.02 -0.69,-1.92 -1.94,-1.92 z"
   class="st2"
   id="path17"
   inkscape:connector-curvature="0"
   style="fill:#7a7a7a;stroke:none;stroke-width:12.23999977;stroke-linecap:butt" />
				</g>
				<g
   id="shape19155-7"
   transform="translate(20.1499,-25.9654)">
					<title
   id="title20">Sheet.19155</title>
					<path
   d="M 0,91.95 H 13.55 V 83.79 H 0 Z m 0,11 H 13.55 V 94.78 H 0 Z"
   class="st3"
   id="path22"
   inkscape:connector-curvature="0"
   style="fill:#fcd116;stroke:none;stroke-width:12.23999977;stroke-linecap:butt" />
				</g>
				<g
   id="shape19156-9"
   transform="translate(4.09828,-15.3071)">
					<title
   id="title25">Sheet.19156</title>
					<path
   d="M 32.1,92.29 H 45.54 V 84.13 H 32.1 Z m 0,-11 H 45.54 V 73.13 H 32.1 Z M 0,81.29 H 13.55 V 73.13 H 0 Z m 0,11 H 13.55 V 84.13 H 0 Z m 0,10.66 H 13.55 V 95.13 H 0 Z"
   class="st4"
   id="path27"
   inkscape:connector-curvature="0"
   style="fill:#ffffff;stroke:none;stroke-width:12.23999977;stroke-linecap:butt" />
				</g>
				<g
   id="shape19157-11"
   transform="translate(20.1499,-15.3071)">
					<title
   id="title30">Sheet.19157</title>
					<rect
   x="0"
   y="95.125"
   width="13.5471"
   height="7.8236198"
   class="st3"
   id="rect32"
   style="fill:#fcd116;stroke:none;stroke-width:12.23999977;stroke-linecap:butt" />
				</g>
				<g
   id="shape19158-13"
   transform="translate(36.2015,-15.3071)">
					<title
   id="title35">Sheet.19158</title>
					<rect
   x="0"
   y="95.125"
   width="13.4333"
   height="7.8236198"
   class="st4"
   id="rect37"
   style="fill:#ffffff;stroke:none;stroke-width:12.23999977;stroke-linecap:butt" />
				</g>
				<g
   id="shape19159-15"
   transform="translate(0,-11.3386)">
					<title
   id="title40">Sheet.19159</title>
					<path
   d="M 1.94,57.59 C 0.91,57.59 0,58.5 0,59.52 v 41.5 c 0,0.91 0.91,1.93 1.94,1.93 H 4.1 L 46.9,57.59 Z"
   class="st5"
   id="path42"
   inkscape:connector-curvature="0"
   style="fill:#ffffff;fill-opacity:0.15;stroke:none;stroke-width:12.23999977;stroke-linecap:butt" />
				</g>
				<g
   id="shape19160-17"
   transform="translate(24.2482)">
					<title
   id="title45">Sheet.19160</title>
					<path
   d="m 28,77.55 c -0.68,0.68 -1.93,0.68 -2.5,0 -0.68,-0.68 -0.68,-1.93 0,-2.49 0.68,-0.68 1.94,-0.68 2.5,0 0.92,0.9 0.92,1.92 0,2.49 z M 27.32,70.97 18.56,71.31 0,89.8 13.21,102.95 31.76,84.47 32.44,75.96 Z"
   class="st6"
   id="path47"
   inkscape:connector-curvature="0"
   style="fill:#804998;stroke:none;stroke-width:12.23999977;stroke-linecap:butt" />
				</g>
				<g
   id="shape19161-19"
   transform="translate(24.2482)">
					<title
   id="title50">Sheet.19161</title>
					<path
   d="m 0,89.8 13.21,13.15 2.84,-2.84 v -26.3 z"
   class="st5"
   id="path52"
   inkscape:connector-curvature="0"
   style="fill:#ffffff;fill-opacity:0.15;stroke:none;stroke-width:12.23999977;stroke-linecap:butt" />
				</g>
				<g
   id="shape19162-21"
   transform="translate(47.5856,-22.9039)">
					<title
   id="title55">Sheet.19162</title>
					<path
   d="m 4.67,100.45 c -0.69,0.68 -1.94,0.68 -2.51,0 -0.68,-0.68 -0.68,-1.92 0,-2.49 0.69,-0.68 1.94,-0.68 2.51,0 0.91,0.91 0.91,1.93 0,2.49 z m 1.25,-3.4 c -1.25,-1.24 -3.42,-1.24 -4.67,0 -1.25,1.25 -1.25,3.4 0,4.65 1.25,1.25 3.42,1.25 4.67,0 1.25,-1.25 1.25,-3.4 0,-4.65 z"
   class="st7"
   id="path57"
   inkscape:connector-curvature="0"
   style="fill:#1e1e1e;stroke:none;stroke-width:12.23999977;stroke-linecap:butt" />
				</g>
			</g>
		</g>
	</g>
</svg>

<?xml version="1.0" encoding="UTF-8" standalone="no"?>
<!DOCTYPE svg PUBLIC "-//W3C//DTD SVG 1.1//EN" "http://www.w3.org/Graphics/SVG/1.1/DTD/svg11.dtd">
<!-- Generated by Microsoft Visio, SVG Export SQL Database Data Discovery &#38; Classification.svg Page-1 -->
<svg xmlns="http://www.w3.org/2000/svg" xmlns:xlink="http://www.w3.org/1999/xlink" xmlns:ev="http://www.w3.org/2001/xml-events"
		width="1.1274in" height="1.42984in" viewBox="0 0 81.1729 102.949" xml:space="preserve" color-interpolation-filters="sRGB"
		class="st8">
	<style type="text/css">
	<![CDATA[
		.st1 {fill:#a0a1a2;stroke:none;stroke-linecap:butt;stroke-width:12.24}
		.st2 {fill:#7a7a7a;stroke:none;stroke-linecap:butt;stroke-width:12.24}
		.st3 {fill:#fcd116;stroke:none;stroke-linecap:butt;stroke-width:12.24}
		.st4 {fill:#ffffff;stroke:none;stroke-linecap:butt;stroke-width:12.24}
		.st5 {fill:#ffffff;fill-opacity:0.15;stroke:none;stroke-linecap:butt;stroke-width:12.24}
		.st6 {fill:#804998;stroke:none;stroke-linecap:butt;stroke-width:12.24}
		.st7 {fill:#1e1e1e;stroke:none;stroke-linecap:butt;stroke-width:12.24}
		.st8 {fill:none;fill-rule:evenodd;font-size:12px;overflow:visible;stroke-linecap:square;stroke-miterlimit:3}
	]]>
	</style>

	<g>
		<title>Page-1</title>
		<g id="group18715-1" transform="translate(12.24,-34.0157)">
			<title>SQL Database Data Discovery &#38; Classification.18715</title>
			<g id="group18716-2">
				<title>Sheet.18716</title>
				<g id="shape18717-3" transform="translate(-2.79776E-13,-11.3386)">
					<title>Sheet.18717</title>
					<path d="M0 101.02 C0 101.93 0.68 102.95 1.94 102.95 L51.57 102.95 C52.48 102.95 53.51 102.27 53.51 101.02 L53.51
								 65.42 L0 65.42 L0 101.02 Z" class="st1"/>
				</g>
				<g id="shape18718-5" transform="translate(-2.79776E-13,-48.8693)">
					<title>Sheet.18718</title>
					<path d="M51.57 95.13 L1.94 95.13 C0.68 95.13 0 96.03 0 97.05 L0 102.95 L53.51 102.95 L53.51 97.05 C53.51 96.03
								 52.82 95.13 51.57 95.13 Z" class="st2"/>
				</g>
				<g id="shape18719-7" transform="translate(20.1499,-25.9654)">
					<title>Sheet.18719</title>
					<path d="M0 91.95 L13.55 91.95 L13.55 83.79 L0 83.79 L0 91.95 ZM0 102.95 L13.55 102.95 L13.55 94.78 L0 94.78
								 L0 102.95 Z" class="st3"/>
				</g>
				<g id="shape18720-9" transform="translate(4.09828,-15.3071)">
					<title>Sheet.18720</title>
					<path d="M32.1 92.29 L45.54 92.29 L45.54 84.13 L32.1 84.13 L32.1 92.29 ZM32.1 81.29 L45.54 81.29 L45.54 73.13
								 L32.1 73.13 L32.1 81.29 ZM0 81.29 L13.55 81.29 L13.55 73.13 L0 73.13 L0 81.29 ZM0 92.29 L13.55 92.29
								 L13.55 84.13 L0 84.13 L0 92.29 ZM0 102.95 L13.55 102.95 L13.55 95.13 L0 95.13 L0 102.95 Z"
							class="st4"/>
				</g>
				<g id="shape18721-11" transform="translate(20.1499,-15.3071)">
					<title>Sheet.18721</title>
					<rect x="0" y="95.125" width="13.5471" height="7.82362" class="st3"/>
				</g>
				<g id="shape18722-13" transform="translate(36.2015,-15.3071)">
					<title>Sheet.18722</title>
					<rect x="0" y="95.125" width="13.4333" height="7.82362" class="st4"/>
				</g>
				<g id="shape18723-15" transform="translate(2.8777E-13,-11.3386)">
					<title>Sheet.18723</title>
					<path d="M1.94 57.59 C0.91 57.59 0 58.5 0 59.52 L0 101.02 C0 101.93 0.91 102.95 1.94 102.95 L4.1 102.95 L46.9
								 57.59 L1.94 57.59 Z" class="st5"/>
				</g>
				<g id="shape18724-17" transform="translate(24.2482,0)">
					<title>Sheet.18724</title>
					<path d="M28 77.55 C27.32 78.23 26.07 78.23 25.5 77.55 C24.82 76.87 24.82 75.62 25.5 75.06 C26.18 74.38 27.44
								 74.38 28 75.06 C28.92 75.96 28.92 76.98 28 77.55 ZM27.32 70.97 L18.56 71.31 L0 89.8 L13.21 102.95
								 L31.76 84.47 L32.44 75.96 L27.32 70.97 Z" class="st6"/>
				</g>
				<g id="shape18725-19" transform="translate(24.2482,0)">
					<title>Sheet.18725</title>
					<path d="M0 89.8 L13.21 102.95 L16.05 100.11 L16.05 73.81 L0 89.8 Z" class="st5"/>
				</g>
				<g id="shape18726-21" transform="translate(47.5856,-22.9039)">
					<title>Sheet.18726</title>
					<path d="M4.67 100.45 C3.98 101.13 2.73 101.13 2.16 100.45 C1.48 99.77 1.48 98.53 2.16 97.96 C2.85 97.28 4.1
								 97.28 4.67 97.96 C5.58 98.87 5.58 99.89 4.67 100.45 ZM5.92 97.05 C4.67 95.81 2.5 95.81 1.25 97.05
								 C0 98.3 0 100.45 1.25 101.7 C2.5 102.95 4.67 102.95 5.92 101.7 C7.17 100.45 7.17 98.3 5.92 97.05
								 Z" class="st7"/>
				</g>
			</g>
		</g>
	</g>
</svg>
